packages/core/src/svgs/tokens/branded/LUA.svg

<svg width="24" height="24" viewBox="0 0 24 24" fill="none" xmlns="http://www.w3.org/2000/svg">
<path fill-rule="evenodd" clip-rule="evenodd" d="M14.3849 2.28624C13.7975 4.22249 14.5555 5.60499 15.078 6.09873C16.0361 5.37435 16.4575 4.08061 16.6093 3.12374C19.8112 4.79061 22 8.14185 22 12.0037C22 14.1912 21.2987 16.2136 20.1081 17.8599C20.1268 17.5856 20.1343 17.2994 20.1319 17.0006C20.1345 16.9885 20.1357 16.9761 20.1355 16.9637V15.5199C20.133 15.4788 20.1148 15.4403 20.0849 15.412C20.0549 15.3839 20.0152 15.3681 19.9739 15.3681C19.9328 15.3681 19.8931 15.3839 19.8631 15.412C19.8332 15.4403 19.815 15.4788 19.8125 15.5199V16.5106C18.5386 16.7137 16.1425 18.003 15.3905 21.4181C15.0512 21.5406 14.7031 21.6449 14.3481 21.7305C13.4049 18.295 11.0312 17.3418 9.82309 17.3087V16.075C9.82061 16.0338 9.80238 15.9952 9.77234 15.967C9.7423 15.9389 9.70277 15.9231 9.6615 15.9231C9.62038 15.9231 9.58071 15.9389 9.55067 15.967C9.52063 15.9952 9.50255 16.0338 9.49992 16.075V17.4631L9.49365 17.4668L9.49992 17.525C9.50065 17.5349 9.50182 17.5444 9.50371 17.5537C9.7894 19.835 10.6368 21.2093 11.6012 22C6.26373 21.7906 2 17.3956 2 12.0037C2 6.47873 6.47686 2 11.9999 2C12.8218 2 13.6206 2.09937 14.3849 2.28624ZM14.1661 10.0162C13.1368 9.57373 11.3787 7.88061 12.5369 4.63812V3.72624C12.5369 3.6833 12.554 3.64214 12.5843 3.61177C12.6146 3.58143 12.6557 3.56436 12.6988 3.56436C12.7416 3.56436 12.7828 3.58143 12.8132 3.61177C12.8436 3.64214 12.8606 3.6833 12.8606 3.72624V4.61061C13.7794 5.16812 15.273 6.98811 14.1661 10.0162ZM17.905 5.17249C18.1019 8.65373 15.9125 9.77629 14.7925 9.90243C14.6112 6.72873 16.5119 5.40998 17.5624 5.11686V4.18561C17.5611 4.16355 17.5642 4.14144 17.5718 4.12064C17.5792 4.09985 17.5909 4.08082 17.606 4.0647C17.6212 4.0486 17.6394 4.03577 17.6597 4.02699C17.68 4.01821 17.7019 4.01369 17.724 4.01369C17.746 4.01369 17.7679 4.01821 17.7883 4.02699C17.8086 4.03577 17.8268 4.0486 17.842 4.0647C17.8572 4.08082 17.8688 4.09985 17.8763 4.12064C17.8839 4.14144 17.8869 4.16355 17.8856 4.18561V5.13249C17.8857 5.14381 17.8847 5.15512 17.8824 5.16624L17.905 5.17249ZM11.4249 8.99123V8.00623C11.4224 7.96512 11.4042 7.92652 11.3743 7.89831C11.3443 7.87011 11.3046 7.8544 11.2633 7.8544C11.2222 7.8544 11.1825 7.87011 11.1525 7.89831C11.1226 7.92652 11.1044 7.96512 11.1019 8.00623V9.27317C11.1017 9.27725 11.1017 9.28148 11.1019 9.28556C11.065 12.9499 13.355 13.9131 14.5268 13.9325C14.5268 10.4468 12.4993 9.19879 11.4249 8.99123ZM14.8393 13.8456C16.0331 13.8262 18.3855 12.8268 18.2594 8.99247C18.2626 8.9796 18.2643 8.96638 18.2643 8.95309V7.86123C18.2643 7.81829 18.2473 7.77712 18.2169 7.74676C18.1866 7.7164 18.1453 7.69935 18.1025 7.69935C18.0596 7.69935 18.0183 7.7164 17.988 7.74676C17.9576 7.77712 17.9406 7.81829 17.9406 7.86123V8.90497C16.8656 9.11187 14.8393 10.3599 14.8393 13.8456ZM10.758 12.8694V11.8637C10.758 11.8209 10.7411 11.7797 10.7108 11.7494C10.6804 11.7192 10.6393 11.7022 10.5966 11.7022C10.5537 11.7022 10.5126 11.7192 10.4823 11.7494C10.4521 11.7797 10.435 11.8209 10.435 11.8637V13.0518C10.435 13.0655 10.4362 13.0794 10.44 13.0918C10.6037 17.42 13.3449 18.3844 14.7062 18.3231C14.4562 14.2825 11.9944 13.01 10.758 12.8694ZM14.9374 18.2918C16.3043 18.3087 19.0262 17.248 19.0286 12.8768C19.0345 12.8599 19.0374 12.8421 19.0374 12.8243V11.5324C19.0349 11.4913 19.0167 11.4528 18.9868 11.4245C18.9567 11.3963 18.9171 11.3806 18.8758 11.3806C18.8347 11.3806 18.795 11.3963 18.765 11.4245C18.7351 11.4528 18.7168 11.4913 18.7144 11.5324V12.71C17.4867 12.885 15.055 14.2337 14.9374 18.2918Z" fill="#FABB47"/>
</svg>

<svg xmlns="http://www.w3.org/2000/svg" width="24" height="24" fill="none" viewBox="0 0 24 24">
    <path fill="#FABB47" fill-rule="evenodd" d="M14.385 2.286c-.588 1.936.17 3.319.693 3.813.958-.725 1.38-2.018 1.531-2.975A10 10 0 0 1 22 12.004c0 2.187-.701 4.21-1.892 5.856q.028-.41.024-.86l.003-.036V15.52a.162.162 0 0 0-.323 0v.99c-1.273.204-3.67 1.493-4.422 4.908q-.509.184-1.042.313c-.943-3.436-3.317-4.39-4.525-4.422v-1.234a.161.161 0 0 0-.323 0v1.388l-.006.004.006.058q0 .015.004.029c.285 2.281 1.133 3.655 2.097 4.446C6.264 21.79 2 17.396 2 12.004 2 6.479 6.477 2 12 2c.822 0 1.62.1 2.385.286m-.219 7.73c-1.03-.442-2.787-2.135-1.63-5.378v-.912a.162.162 0 0 1 .325 0v.885c.918.557 2.412 2.377 1.305 5.405m3.739-4.844c.197 3.482-1.993 4.604-3.113 4.73-.18-3.173 1.72-4.492 2.77-4.785v-.931a.16.16 0 0 1 .226-.159.16.16 0 0 1 .098.159v.946l-.004.034zm-6.48 3.82v-.986a.162.162 0 0 0-.323 0v1.28c-.037 3.664 2.253 4.627 3.425 4.647 0-3.486-2.028-4.734-3.102-4.942m3.414 4.854c1.194-.02 3.547-1.02 3.42-4.854l.005-.039V7.861a.162.162 0 1 0-.323 0v1.044c-1.075.207-3.102 1.455-3.102 4.94m-4.081-.977v-1.005a.162.162 0 1 0-.323 0v1.188q0 .02.005.04c.164 4.328 2.905 5.292 4.266 5.231-.25-4.04-2.712-5.313-3.948-5.454m4.18 5.423c1.366.017 4.088-1.044 4.09-5.415a.2.2 0 0 0 .01-.053v-1.292a.162.162 0 0 0-.324 0v1.178c-1.227.175-3.659 1.524-3.777 5.582" clip-rule="evenodd"/>
</svg>
